images/ib-ico-31.svg

<?xml version="1.0" encoding="UTF-8" standalone="no"?>
<svg width="86px" height="86px" viewBox="0 0 86 86" version="1.1" xmlns="http://www.w3.org/2000/svg" xmlns:xlink="http://www.w3.org/1999/xlink" xmlns:sketch="http://www.bohemiancoding.com/sketch/ns">
    <!-- Generator: Sketch 3.3.3 (12081) - http://www.bohemiancoding.com/sketch -->
    <title>ib-ico-3</title>
    <desc>Created with Sketch.</desc>
    <defs>
        <linearGradient x1="49.08522%" y1="50%" x2="49.3895484%" y2="49.2577567%" id="linearGradient-1">
            <stop stop-color="#3498DB" offset="0%"></stop>
            <stop stop-color="#1A699C" offset="100%"></stop>
        </linearGradient>
    </defs>
    <g id="Page-1" stroke="none" stroke-width="1" fill="none" fill-rule="evenodd" sketch:type="MSPage">
        <g id="ib-ico-3" sketch:type="MSArtboardGroup" fill="url(#linearGradient-1)">
            <path d="M76.7998836,43.9199258 C76.7169595,43.6379837 76.6008657,43.3560416 76.4350174,43.0906843 L60.082375,18.6114751 L59.8336025,18.3958723 C59.4853211,18.0641757 56.267864,15.2447546 52.2377503,15.4935271 C49.9822135,15.6427905 47.9422794,16.7208045 46.316966,18.6446448 C45.338461,19.8055829 45.4877245,21.5304052 46.6486626,22.5089102 C47.8096007,23.4874152 49.534423,23.3381517 50.512928,22.1772136 C51.3753392,21.1489541 52.1050717,20.9831058 52.5694469,20.9499362 C53.8630637,20.867012 55.2727742,21.7294232 55.9361674,22.2435529 L67.3797002,39.3756824 L67.1640974,39.3756824 L58.7555886,39.3756824 C56.4502972,39.3756824 54.1615906,40.0224907 52.171411,41.1834288 C48.2905608,38.8449678 44.1111836,37.9825566 40.0147306,38.728874 C37.3611578,39.209834 35.2217147,40.2546783 33.7954193,41.1336743 C31.8218245,40.0059059 29.5497028,39.3756824 27.2775811,39.3756824 L19.1675992,39.3756824 L30.6443016,22.1937984 C31.2413555,21.7294232 32.6842357,20.8172575 33.9944373,20.9001817 C34.4753974,20.9333513 35.2051299,21.0826148 36.0841259,22.1274591 C37.0626308,23.2883972 38.7874532,23.4210758 39.9483913,22.4591557 C41.1093294,21.4806507 41.242008,19.7558284 40.2800879,18.5948903 C38.6547745,16.67105 36.6148404,15.5930361 34.3593035,15.4437726 C30.3291898,15.1950001 27.1117328,18.0144212 26.7634514,18.3461178 L26.5146789,18.5617206 L10.3278848,42.7424029 C7.87332995,45.0311094 6.33094075,48.2817361 6.33094075,51.897229 L6.33094075,52.0464925 L7.04408844,58.3487279 L7.06067327,58.4648217 C7.55821818,61.7154484 8.9513439,64.684133 10.9581083,66.8235761 C13.2633997,69.2781309 16.2320843,70.5717477 19.5490503,70.5717477 L26.5644334,70.5717477 C32.8666688,70.5717477 37.6430999,65.9611649 39.0362256,58.5477459 L39.0528104,58.4482369 L39.7659581,52.2123408 C40.0810699,49.6914466 39.4508464,47.1871373 38.0079662,45.0311094 C40.3298424,43.9365106 43.8292415,43.1570236 47.9588642,45.1140335 C46.5657385,47.2368918 45.9686846,49.6914466 46.2340419,52.1791712 L46.9471896,58.4814066 L46.9803592,58.6140852 C48.6222574,66.0938436 53.2825946,70.5551629 59.4355666,70.5551629 L66.4509497,70.5551629 C69.7679157,70.5551629 72.7200155,69.2615461 75.008722,66.8069913 C76.9989016,64.684133 78.3588577,61.7983726 78.9393267,58.4979914 L79.6690592,52.0299077 L79.6690592,51.8806442 C79.6690592,48.8622051 78.5910453,46.0759537 76.7998836,43.9199258 L76.7998836,43.9199258 Z M34.3261339,51.5489476 L33.629571,57.6355802 C33.1817806,59.9574564 31.6062218,65.0987538 26.5478486,65.0987538 L19.5324655,65.0987538 C15.18724,65.0987538 12.9980424,61.1183946 12.450743,57.6853347 L11.7873498,51.7645504 C11.8205195,49.7743708 12.6995155,47.999794 14.0594716,46.7393469 C14.1589805,46.6730076 14.2419047,46.5900834 14.3414137,46.4905744 C15.5686911,45.4788998 17.1442499,44.8486763 18.8524874,44.8486763 L27.2609963,44.8486763 C29.3672697,44.8486763 31.5398824,45.8271812 32.9330082,47.4027401 C33.6959103,48.2651513 34.5583215,49.6914466 34.3261339,51.5489476 L34.3261339,51.5489476 Z M73.5326721,57.6521651 C72.8858638,61.267658 70.6800814,65.0987538 66.4509497,65.0987538 L59.4355666,65.0987538 C54.7752293,65.0987538 53.0006525,60.4550013 52.3538442,57.6024106 L51.6738661,51.5987021 C51.4748482,49.658277 52.370429,48.1988119 53.149916,47.3198159 C54.5430417,45.7774268 56.6327303,44.8486763 58.7390037,44.8486763 L67.1475126,44.8486763 C70.9951931,44.8486763 74.1131412,47.9334547 74.1960653,51.7645504 L73.5326721,57.6521651 L73.5326721,57.6521651 Z" id="Shape" sketch:type="MSShapeGroup"></path>
        </g>
    </g>
</svg>

<svg width="86" height="86" xmlns="http://www.w3.org/2000/svg"><defs><linearGradient x1="49.085%" y1="50%" x2="49.39%" y2="49.258%" id="linearGradient-1"><stop stop-color="#3498DB" offset="0%"/><stop stop-color="#1A699C" offset="100%"/></linearGradient></defs><g id="Page-1" stroke="none" stroke-width="1" fill="none" fill-rule="evenodd"><g id="ib-ico-3" fill="url(#linearGradient-1)"><path d="M76.8 43.92a3.328 3.328 0 00-.365-.83L60.082 18.612l-.248-.215c-.349-.332-3.566-3.151-7.596-2.902-2.256.149-4.296 1.227-5.921 3.15a2.738 2.738 0 00.332 3.865c1.16.978 2.885.83 3.864-.332.862-1.028 1.592-1.194 2.056-1.227 1.294-.083 2.704.78 3.367 1.294L67.38 39.376h-8.624c-2.306 0-4.594.646-6.585 1.807-3.88-2.338-8.06-3.2-12.156-2.454-2.654.48-4.793 1.526-6.22 2.405-1.973-1.128-4.245-1.758-6.517-1.758h-8.11l11.476-17.182c.597-.465 2.04-1.377 3.35-1.294.481.033 1.211.183 2.09 1.227a2.752 2.752 0 003.864.332c1.161-.978 1.294-2.703.332-3.864-1.625-1.924-3.665-3.002-5.92-3.151-4.03-.249-7.248 2.57-7.597 2.902l-.248.216-16.187 24.18c-2.455 2.29-3.997 5.54-3.997 9.155v.15l.713 6.302.017.116c.497 3.25 1.89 6.22 3.897 8.359 2.305 2.454 5.274 3.748 8.591 3.748h7.015c6.303 0 11.08-4.61 12.472-12.024l.017-.1.713-6.236c.315-2.52-.315-5.025-1.758-7.18 2.322-1.095 5.821-1.875 9.95.082-1.392 2.123-1.99 4.577-1.724 7.065l.713 6.302.033.133c1.642 7.48 6.303 11.941 12.456 11.941h7.015c3.317 0 6.269-1.293 8.558-3.748 1.99-2.123 3.35-5.009 3.93-8.309l.73-6.468v-.15c0-3.018-1.078-5.804-2.87-7.96zm-42.474 7.629l-.696 6.087c-.448 2.321-2.024 7.463-7.082 7.463h-7.016c-4.345 0-6.534-3.98-7.081-7.414l-.664-5.92c.034-1.99.913-3.765 2.272-5.026.1-.066.183-.149.282-.248a7.096 7.096 0 014.511-1.642h8.409c2.106 0 4.279.978 5.672 2.554.763.862 1.625 2.288 1.393 4.146zm39.207 6.103c-.647 3.616-2.853 7.447-7.082 7.447h-7.015c-4.66 0-6.435-4.644-7.082-7.497l-.68-6.003c-.2-1.94.696-3.4 1.476-4.28 1.393-1.542 3.483-2.47 5.589-2.47h8.409c3.847 0 6.965 3.084 7.048 6.916l-.663 5.887z" id="Shape"/></g></g></svg>
